!!!!SEGMENT: pl-wnifc--13846--084_anonim--piesni-polskie-i-ruskie-ludu-galicyjskiego-84-minely-slodkie-momenta.krn
!!!cenid: 18xx:3306
!!!COM: Anonim
!!!COM-rismID: pe30004985
!!!CDT:
!!!CNT:
!!!GTL: Pieśni polskie i ruskie ludu galicyjskiego
!!!OTL: 84. Minęły słodkie momenta
!!!PDT: 1833
!!!AGN:
!!!SMS-siglum: PL-Wnifc
!!!SMS-shelfmark: 13846
!!!SMS-shelfwork: 084 G
!!!SMS-variant:
!!!SMS-altvar:
!!!NIFC-rismSourceID: 1001038996
!!!NIFC-islandoraID:
!!!URL-pdf-islandora:
!!!URL-scan:
!!!ONB-nifc:
!!!OMD: Allegretto.
!!!AIN: 1 piano 1 vox
!!!key: G
**kern	**kern	**kern	**text
*part2	*part2	*part1	*part1
*group2	*group2	*group1	*group1
*staff3	*staff2	*staff1	*staff1
*I"[FORTEPIAN.]	*I"[FORTEPIAN.]	*I"[GŁOS.]	*
*Ipiano	*Ipiano	*Ivox	*
*ICklav	*ICklav	*ICvox	*
*IGacmp	*IGacmp	*IGsolo	*
*clefF4	*clefG2	*clefG2	*
*k[f#]	*k[f#]	*k[f#]	*
*G:	*G:	*G:	*
*M3/4	*M3/4	*M3/4	*
=1-	=1-	=1-	=1-
!LO:TX:t=P:problem:mixed beam	!	!LO:TX:a:B:t=E.48.	!
8GG/L	8b\L 8g\	8b\	Mi-
8G\J	8dd\J 8b\	8dd\	-nę-
8G\L	8cc#X\L 8a#X\	8cc#X\	-ły
8G\	8dd\ 8b\	8dd\	słod-
8G\	8ee\ 8ccn\	8ee\	-kie
8G\J	8dd\J 8b\	8dd\	mo-
=2	=2	=2	=2
8G\	(8dd\L 8b\	(8dd\L	-men-
8r	8gg\J 8b\)	8gg\J)	.
8G\	2gg\ 2b\	2gg\	-ta,
8r	.	.	.
8G\	.	.	.
8r	.	.	.
=3	=3	=3	=3
8G\	8b\L 8g\	8b\	któ-
8r	8dd\ 8b\	8dd\	-rem
!	!LO:SIC:v:n=2:s=8a#\	!	!
8G/ 8GG/	8cc#X\ 8a\	8cc#X\	przy
8r	8dd\ 8b\	8dd\	Wal-
8G/ 8GG/	8.ee\ 8.ccn\	8.ee\	-ku
8r	.	.	.
.	16b/Jk 16g/	16b\	spę-
!!linebreak:original
=4	=4	=4	=4
4D/ 4DD/	(8.dd\L 8.b\	8.dd\L	-dza-
.	16cc\Jk 16a\)	16ccn\Jk	.
8r	4cc\ 4a\	4cc\	-ła;
8D\L	.	.	.
8F#\	4r	4r	.
8A\J	.	.	.
=5	=5	=5	=5
8DD/L	8a/L 8f#/	8a\	u-
8D\J	8cc/J 8a/	8cc\	-bie-
*tremolo	*	*	*
8D\L	8b\L 8g#X\	8b\	-gły
8D\	8cc\ 8a\	8cc\	jak
8D\	8dd\ 8b\	8dd\	stru-
8D\J	8cc\J 8a\	8cc\	-ga
*Xtremolo	*	*	*
=6	=6	=6	=6
8D\	(8.cc\L 8.a\	(8.cc\L	krę-
8r	.	.	.
.	16aa\Jk 16cc\)	16aa\Jk)	.
8DD/	4.aa\ 4.cc\	4.aaS\	-ta,
8r	.	.	.
8D\	.	.	.
8r	8gg\ 8b\	8gg\	.
=7	=7	=7	=7
8DD/	8ff#\L 8a\	8ff#\	pa-
8r	8ee\J 8g\	8ee\	-mięć
!!linebreak:original
8D\	8dd\L 8f#\	8dd\	mi
8r	8a\ 8f#\	8a/	tyl-
8D\	8.dd\ 8.f#\	8.dd\	-ko
8r	.	.	.
.	16cc\Jk 16a\	16cc\	zo-
=8	=8	=8	=8
*^	*	*	*
4D/	4GG\	(>8.cc\L 8.a\	(8.cc\L	-sta-
.	.	16b\Jk 16g\	16b\Jk)	.
*	*	*^	*	*
8D/	8GG\	4b/)	4g\	4b\	-ła
*v	*v	*	*	*	*
8G\L	.	.	.	.
8D\	4r	4ryy	4r	.
8BB\J	.	.	.	.
*	*v	*v	*	*
=9||	=9||	=9||	=9||
8GG/	8b/L 8d/	8b/	bez
8r	8b/J 8d/	8b/	nie-
8GG/	8a/L 8c/	8a/	-go
8r	8g/ 8B/	8g/	za-
8GG/	8f#/ 8A/	8f#/	-ba-
8r	8g/J 8B/	8g/	-wa
!!pagebreak:original
=10	=10	=10	=10
8DD/	4a/ 4f#/	4a/	ża-
8r	.	.	.
8D\	2a/ 2f#/	2a/	-dna,
8r	.	.	.
8D\	.	.	.
8r	.	.	.
=11	=11	=11	=11
8DD/	8a/ 8f#/ 8d/	8a/	sam
8r	8a/L 8f#/	8a/	ta-
8D\	8g#X/ 8e#X/	8g#X/	-niec
8r	8a/ 8f#/	8a/	nie
8D\	8dd/ 8f#/	8dd\	jest
8r	8cc/J 8a/	8cc\	mi
=12	=12	=12	=12
8GG/	8.a/L 8.f#/	(8.a/L	mi-
8r	.	.	.
.	16b/Jk 16g/	16b\Jk)	.
8G\	2b/ 2g/	2b\	-ły;
8r	.	.	.
8G\	.	.	.
8r	.	.	.
=13	=13	=13	=13
!LO:TX:t=P:problem:mixed beam	!	!	!
8GG/L	8b/L 8g/	8b\	ta
8G\J	8b/J 8g/	8b\	tyl-
!!linebreak:original
*tremolo	*	*	*
8G\L	8b/L 8g/	8b\	-ko
8G\	8b/ 8g/	8b\	pio-
8G\	8a/ 8f#/	8a/	-snecz-
8G\J	8b/J 8g/ 8fn/	8b\	-ka
*Xtremolo	*	*	*
=14	=14	=14	=14
8C/	(8.dd\L 8.g\ 8.e\	(8.dd\L	ła-
8r	.	.	.
.	16cc\Jk)	16cc\Jk)	.
8C/	2cc\ 2g\ 2e\	2cc\	-dna
8r	.	.	.
8C/	.	.	.
8r	.	.	.
=15	=15	=15	=15
!	!LO:TX:t=P:problem:mixed beam	!	!
8D\	8a/L 8f#/ 8c/	8a\	co
8r	(8ee\J	8ee\	je-
8F#\	4.dd\ 4.a\ 4.d\)	4.dd\	-go
8r	.	.	.
8D\	.	.	.
8r	8cc\	8cc\	u-
=16	=16	=16	=16
8DD/	8e/L 8c/ [8A/	8e/	-sta
8r	8f#/J 8c/ 8A/]	8f#/	nó-
!	!LO:S:s=1:note:problem:note-level slur	!	!
!	!LO:S:s=2:note:problem:note-level slur	!	!
4D/ 4DD/	(<4a/ (4f#/ 4c/	4a/	-ci-
!	!LO:S:s=1:note:problem:note-level slur	!	!
!	!LO:S:s=2:note:problem:note-level slur	!	!
4D/ 4GG/	4g/) 4B/)	4g/	-ły.
==	==	==	==
*-	*-	*-	*-
!!!system-decoration: g1{(g2)}
!!!RDF**kern: > = above
!!!RDF**kern: < = below
!!!RDF**kern: | = vertical stroke
!!!ENC: Katarzyna Serwa
!!!END: 2021-11-11
